X: 1
T:Trot Along
M:2/4
L:1/16
S:Devil's Box Vol 25 6/1/74
N:As played by Howdy Forrester
Z:Transcribed by Frank Maloy
K:C
AB||"C"c2AG EBAB|c2AG EBAB|cBcA "G7"BcdB|"C"c2 +E4c4+ cd|c2AG EBAB|
c2AG EFEF|"G7"g^FGA GDB,D|"C"C6 cd|c2AG EGAB|c2AG EFAB|
cBCA "G7"BcdB|"C"+E6c6+ +Ec++Ed+|c2AG EGcd|c2AG ECEF|
"G7"G^FGA GDB,D|"C"C^cd|e2g2 edcd|ecdc AcGc|"F"ABcA dcAc|"C"G6cd|
e2g2 edcd|ecdc AcGc|"G7"Ad+d2g2+ +d3g3++eg+|+d8g8+|"C"+dg++e2g2+ +e2g2+c
d|
ecdc AcGc|"F"ABcA dcAc|"C"G6 +_E2B2+|+E2c2+AG EGAB|c2AG ECEF|
"G7"G^FGA GDB,G,|"C"C6 (3E^FG|"Am"A2A2 Bc (3BcB|ABAG ECEG|A2A2 Bc (3BcB|
+Ae++Be++ce++de+ "E7"e4|"Am"+GA+A3 A2 (3BcB|ABAG ECEG|"E7"Ee2f e2d2|
"Am"c2 (3BcB A4|"G7"G6 cd|"C"e2g2 edcd|ecdc AcGc|"F"ABcA dcAc|
"C"G6 cd|e2g2 edcd|ecdc AcGc|"G7"Ad+d2g2+ +d3g3++eg+|+d8g8+|
"C"+dg++e3g3+ +e2g2+cd|ecdc AcGc|"F"ABcA dcAc|"C"G6 +_E2B2+|
+E2c2+AG EGAB|c2AG ECEF|"G7"G^FGA GDB,G,|"C"C6
